src/assets/images/iM.svg

<svg width="26" height="19" viewBox="0 0 26 19" fill="none" xmlns="http://www.w3.org/2000/svg">
<path d="M0.448864 19V5.90909H4.07955V19H0.448864ZM2.27273 4.22159C1.73295 4.22159 1.26989 4.04261 0.883523 3.68466C0.502841 3.32102 0.3125 2.88636 0.3125 2.38068C0.3125 1.88068 0.502841 1.4517 0.883523 1.09375C1.26989 0.730113 1.73295 0.548295 2.27273 0.548295C2.8125 0.548295 3.27273 0.730113 3.65341 1.09375C4.03977 1.4517 4.23295 1.88068 4.23295 2.38068C4.23295 2.88636 4.03977 3.32102 3.65341 3.68466C3.27273 4.04261 2.8125 4.22159 2.27273 4.22159ZM7.05611 1.54545H11.6072L16.4141 13.2727H16.6186L21.4254 1.54545H25.9766V19H22.397V7.6392H22.2521L17.7351 18.9148H15.2976L10.7805 7.59659H10.6357V19H7.05611V1.54545Z" fill="white"/>
</svg>

<svg width="26" height="19" fill="none" xmlns="http://www.w3.org/2000/svg"><path d="M.449 19V5.91h3.63V19H.45ZM2.273 4.222c-.54 0-1.003-.18-1.39-.537-.38-.364-.57-.799-.57-1.304 0-.5.19-.93.57-1.287.387-.364.85-.546 1.39-.546.54 0 1 .182 1.38.546.387.358.58.787.58 1.287 0 .505-.193.94-.58 1.304-.38.358-.84.537-1.38.537Zm4.783-2.677h4.551l4.807 11.728h.205l4.806-11.728h4.552V19h-3.58V7.64h-.145l-4.517 11.275h-2.437L10.78 7.597h-.144V19h-3.58V1.545Z" fill="#fff"/></svg>
